packages/kaspersky-hexa-ui-icons/src/iconsSVGs/24/Onspicifieddays.svg

<svg width="24" height="24" viewBox="0 0 24 24" fill="none" xmlns="http://www.w3.org/2000/svg">
<path d="M6 4.5C6 5.32843 5.32843 6 4.5 6C3.67157 6 3 5.32843 3 4.5C3 3.67157 3.67157 3 4.5 3C5.32843 3 6 3.67157 6 4.5Z" fill="black"/>
<path d="M11 14.5C11 15.3284 10.3284 16 9.5 16C8.67157 16 8 15.3284 8 14.5C8 13.6716 8.67157 13 9.5 13C10.3284 13 11 13.6716 11 14.5Z" fill="black"/>
<path d="M4.5 21C5.32843 21 6 20.3284 6 19.5C6 18.6716 5.32843 18 4.5 18C3.67157 18 3 18.6716 3 19.5C3 20.3284 3.67157 21 4.5 21Z" fill="black"/>
<path d="M21 19.5C21 20.3284 20.3284 21 19.5 21C18.6716 21 18 20.3284 18 19.5C18 18.6716 18.6716 18 19.5 18C20.3284 18 21 18.6716 21 19.5Z" fill="black"/>
<path d="M14.5 11C15.3284 11 16 10.3284 16 9.5C16 8.67157 15.3284 8 14.5 8C13.6716 8 13 8.67157 13 9.5C13 10.3284 13.6716 11 14.5 11Z" fill="black"/>
<g opacity="0.2">
<path d="M11 4.5C11 5.32843 10.3284 6 9.5 6C8.67157 6 8 5.32843 8 4.5C8 3.67157 8.67157 3 9.5 3C10.3284 3 11 3.67157 11 4.5Z" fill="black"/>
<path d="M16 4.5C16 5.32843 15.3284 6 14.5 6C13.6716 6 13 5.32843 13 4.5C13 3.67157 13.6716 3 14.5 3C15.3284 3 16 3.67157 16 4.5Z" fill="black"/>
<path d="M19.5 6C20.3284 6 21 5.32843 21 4.5C21 3.67157 20.3284 3 19.5 3C18.6716 3 18 3.67157 18 4.5C18 5.32843 18.6716 6 19.5 6Z" fill="black"/>
<path d="M6 14.5C6 15.3284 5.32843 16 4.5 16C3.67157 16 3 15.3284 3 14.5C3 13.6716 3.67157 13 4.5 13C5.32843 13 6 13.6716 6 14.5Z" fill="black"/>
<path d="M14.5 16C15.3284 16 16 15.3284 16 14.5C16 13.6716 15.3284 13 14.5 13C13.6716 13 13 13.6716 13 14.5C13 15.3284 13.6716 16 14.5 16Z" fill="black"/>
<path d="M21 14.5C21 15.3284 20.3284 16 19.5 16C18.6716 16 18 15.3284 18 14.5C18 13.6716 18.6716 13 19.5 13C20.3284 13 21 13.6716 21 14.5Z" fill="black"/>
<path d="M9.5 21C10.3284 21 11 20.3284 11 19.5C11 18.6716 10.3284 18 9.5 18C8.67157 18 8 18.6716 8 19.5C8 20.3284 8.67157 21 9.5 21Z" fill="black"/>
<path d="M16 19.5C16 20.3284 15.3284 21 14.5 21C13.6716 21 13 20.3284 13 19.5C13 18.6716 13.6716 18 14.5 18C15.3284 18 16 18.6716 16 19.5Z" fill="black"/>
<path d="M4.5 11C5.32843 11 6 10.3284 6 9.5C6 8.67157 5.32843 8 4.5 8C3.67157 8 3 8.67157 3 9.5C3 10.3284 3.67157 11 4.5 11Z" fill="black"/>
<path d="M11 9.5C11 10.3284 10.3284 11 9.5 11C8.67157 11 8 10.3284 8 9.5C8 8.67157 8.67157 8 9.5 8C10.3284 8 11 8.67157 11 9.5Z" fill="black"/>
<path d="M19.5 11C20.3284 11 21 10.3284 21 9.5C21 8.67157 20.3284 8 19.5 8C18.6716 8 18 8.67157 18 9.5C18 10.3284 18.6716 11 19.5 11Z" fill="black"/>
</g>
</svg>

<svg xmlns="http://www.w3.org/2000/svg" width="24" height="24" fill="none" viewBox="0 0 24 24"><path fill="#000" d="M6 4.5C6 5.328 5.328 6 4.5 6S3 5.328 3 4.5 3.672 3 4.5 3 6 3.672 6 4.5m5 10c0 .828-.672 1.5-1.5 1.5S8 15.328 8 14.5 8.672 13 9.5 13s1.5.672 1.5 1.5M4.5 21c.828 0 1.5-.672 1.5-1.5S5.328 18 4.5 18 3 18.672 3 19.5 3.672 21 4.5 21M21 19.5c0 .828-.672 1.5-1.5 1.5s-1.5-.672-1.5-1.5.672-1.5 1.5-1.5 1.5.672 1.5 1.5M14.5 11c.828 0 1.5-.672 1.5-1.5S15.328 8 14.5 8 13 8.672 13 9.5s.672 1.5 1.5 1.5"/></svg>
